src/components/00-materials/images-raw/Men.svg

<svg width="96" height="96" viewBox="0 0 96 96" fill="none" xmlns="http://www.w3.org/2000/svg">
<path d="M58.79 31C55.9 31 53.12 28.7 52 26C50.19 29.91 48 33 42.5 33H37V41C37 47.64 41 53 48 53C55 53 59 47.61 59 41V31H58.79Z" stroke="#00008F" stroke-width="2" stroke-linecap="round" stroke-linejoin="round"/>
<path d="M59 42.0699C60.5933 40.9445 61.8835 39.4426 62.7559 37.6979C63.6282 35.9531 64.0556 34.0198 64 32.0699V25.9999C64 24.939 63.5786 23.9216 62.8284 23.1715C62.0783 22.4213 61.0609 21.9999 60 21.9999C58.7112 19.8323 56.8729 18.0434 54.671 16.8143C52.469 15.5851 49.9815 14.9592 47.46 14.9999H46.27C44.3934 15.0025 42.5357 15.3748 40.803 16.0953C39.0702 16.8159 37.4964 17.8707 36.1713 19.1995C34.8462 20.5283 33.7958 22.1051 33.0801 23.8398C32.3644 25.5746 31.9974 27.4333 32 29.3099V31.7699C32 35.6399 34 40.0599 37 42.0699M41 50.6899V55.9999L32.31 57.4299C29.2088 57.8363 26.358 59.3471 24.2806 61.6854C22.2032 64.0236 21.0384 67.0324 21 70.1599V74.8499C21.0024 75.7998 21.3428 76.7179 21.9602 77.4398C22.5777 78.1617 23.4319 78.6403 24.37 78.7899L35.44 80.7899C43.7416 82.34 52.2584 82.34 60.56 80.7899L71.63 78.7899C72.5681 78.6403 73.4223 78.1617 74.0398 77.4398C74.6572 76.7179 74.9976 75.7998 75 74.8499V70.1599C74.9616 67.0324 73.7968 64.0236 71.7194 61.6854C69.642 59.3471 66.7912 57.8363 63.69 57.4299L55 55.9999V50.6899M32 74.9999V80.1699M64 74.9999V80.1699" stroke="#00008F" stroke-width="2" stroke-linecap="round" stroke-linejoin="round"/>
<path d="M38.29 56.4399L46.47 66.1799C46.6577 66.4029 46.892 66.5822 47.1562 66.7052C47.4205 66.8282 47.7085 66.8919 48 66.8919C48.2915 66.8919 48.5795 66.8282 48.8438 66.7052C49.1081 66.5822 49.3423 66.4029 49.53 66.1799L57.7 56.4499" stroke="#00008F" stroke-width="2" stroke-linecap="round" stroke-linejoin="round"/>
</svg>

<svg width="96" height="96" viewBox="0 0 96 96" fill="none" xmlns="http://www.w3.org/2000/svg"><path d="M58.79 31c-2.89 0-5.67-2.3-6.79-5-1.81 3.91-4 7-9.5 7H37v8c0 6.64 4 12 11 12s11-5.39 11-12V31h-.21z" stroke="#00008F" stroke-width="2" stroke-linecap="round" stroke-linejoin="round"/><path d="M59 42.07a11.83 11.83 0 005-10V26a4 4 0 00-4-4 14.32 14.32 0 00-12.54-7h-1.19A14.29 14.29 0 0032 29.31v2.46c0 3.87 2 8.29 5 10.3m4 8.62V56l-8.69 1.43A13 13 0 0021 70.16v4.69a4 4 0 003.37 3.94l11.07 2a68.428 68.428 0 0025.12 0l11.07-2A4 4 0 0075 74.85v-4.69a13 13 0 00-11.31-12.73L55 56v-5.31M32 75v5.17M64 75v5.17" stroke="#00008F" stroke-width="2" stroke-linecap="round" stroke-linejoin="round"/><path d="M38.29 56.44l8.18 9.74a2 2 0 003.06 0l8.17-9.73" stroke="#00008F" stroke-width="2" stroke-linecap="round" stroke-linejoin="round"/></svg>
